bots/hooky/seasonal/halloween.svg

<svg width="2048" height="2048" fill="none" xmlns="http://www.w3.org/2000/svg"><g clip-path="url(#a)"><path fill="url(#b)" d="M0 0h2048v2048H0z"/><g filter="url(#c)"><path d="M818.079 1038.28c7.581-26.55-7.799-54.225-34.352-61.807-26.553-7.581-54.224 7.799-61.806 34.347l96.158 27.46Zm-96.158-27.46a286.897 286.897 0 0 1-82.519 133.2l67.4 73.87a386.963 386.963 0 0 0 111.277-179.61l-96.158-27.46Zm-82.519 133.2a286.968 286.968 0 0 1-140.191 70l18.55 98.26a386.996 386.996 0 0 0 189.041-94.39l-67.4-73.87Zm-140.191 70a287.024 287.024 0 0 1-156.064-14.07l-35.829 93.36a387.01 387.01 0 0 0 210.443 18.97l-18.55-98.26Zm-156.064-14.07A287.01 287.01 0 0 1 217.742 1106l-79.529 60.62a387.01 387.01 0 0 0 169.105 126.69l35.829-93.36ZM217.742 1106a286.942 286.942 0 0 1-57.358-145.808l-99.518 9.809a386.894 386.894 0 0 0 77.347 196.619l79.529-60.62Zm-57.358-145.808a286.923 286.923 0 0 1 27.789-154.198l-89.834-43.932a386.933 386.933 0 0 0-37.473 207.939l99.518-9.809Zm27.789-154.198c22.201-45.398 64.192-86.455 111.873-116.542l-53.364-84.571C188.618 641.52 131.068 695.138 98.34 762.062l89.833 43.932ZM392.645 0v415.592h100V0h-100Zm-92.599 689.452c44.624-28.157 91.748-64.532 128.173-108.999 36.567-44.642 64.426-100.111 64.426-164.861h-100c0 34.683-14.736 68.471-41.786 101.493-27.192 33.196-64.709 62.892-104.177 87.796l53.364 84.571Z" fill="#424242"/></g><g filter="url(#d)"><path d="M1110.08 1038.28c7.58-26.55-7.8-54.225-34.35-61.807-26.56-7.581-54.23 7.799-61.81 34.347l96.16 27.46Zm-96.16-27.46a286.887 286.887 0 0 1-82.518 133.2l67.4 73.87a386.948 386.948 0 0 0 111.278-179.61l-96.16-27.46Zm-82.518 133.2a286.968 286.968 0 0 1-140.191 70l18.55 98.26a386.996 386.996 0 0 0 189.041-94.39l-67.4-73.87Zm-140.191 70a287.024 287.024 0 0 1-156.064-14.07l-35.829 93.36a387.01 387.01 0 0 0 210.443 18.97l-18.55-98.26Zm-156.064-14.07A287.01 287.01 0 0 1 509.742 1106l-79.529 60.62a387.01 387.01 0 0 0 169.105 126.69l35.829-93.36ZM509.742 1106a286.942 286.942 0 0 1-57.358-145.808l-99.518 9.809a386.898 386.898 0 0 0 77.347 196.619l79.529-60.62Zm-57.358-145.808a286.923 286.923 0 0 1 27.789-154.198l-89.833-43.932a386.926 386.926 0 0 0-37.474 207.939l99.518-9.809Zm27.789-154.198c22.201-45.398 64.192-86.455 111.873-116.542l-53.364-84.571c-58.064 36.639-115.614 90.257-148.342 157.181l89.833 43.932ZM684.645 0v415.592h100V0h-100Zm-92.599 689.452c44.624-28.157 91.748-64.532 128.173-108.999 36.567-44.642 64.426-100.111 64.426-164.861h-100c0 34.683-14.736 68.471-41.786 101.493-27.192 33.196-64.709 62.892-104.177 87.796l53.364 84.571Z" fill="#424242"/></g><g filter="url(#e)"><path d="M1402.08 1038.28c7.58-26.55-7.8-54.225-34.35-61.807-26.56-7.581-54.23 7.799-61.81 34.347l96.16 27.46Zm-96.16-27.46a286.94 286.94 0 0 1-82.52 133.2l67.4 73.87a386.936 386.936 0 0 0 111.28-179.61l-96.16-27.46Zm-82.52 133.2a286.96 286.96 0 0 1-140.19 70l18.55 98.26c70.55-13.32 136.01-46 189.04-94.39l-67.4-73.87Zm-140.19 70a287.02 287.02 0 0 1-156.063-14.07l-35.829 93.36a387.005 387.005 0 0 0 210.442 18.97l-18.55-98.26Zm-156.063-14.07A287.01 287.01 0 0 1 801.742 1106l-79.529 60.62a387.01 387.01 0 0 0 169.105 126.69l35.829-93.36ZM801.742 1106a286.942 286.942 0 0 1-57.358-145.808l-99.518 9.809a386.898 386.898 0 0 0 77.347 196.619l79.529-60.62Zm-57.358-145.808a286.923 286.923 0 0 1 27.789-154.198l-89.833-43.932a386.926 386.926 0 0 0-37.474 207.939l99.518-9.809Zm27.789-154.198c22.201-45.398 64.192-86.455 111.873-116.542l-53.364-84.571c-58.064 36.639-115.614 90.257-148.342 157.181l89.833 43.932ZM976.645 0v415.592h99.995V0h-99.995Zm-92.599 689.452c44.624-28.157 91.748-64.532 128.174-108.999 36.57-44.642 64.42-100.111 64.42-164.861h-99.995c0 34.683-14.736 68.471-41.786 101.493-27.192 33.196-64.709 62.892-104.177 87.796l53.364 84.571Z" fill="#424242"/></g><g filter="url(#f)"><path d="M1694.08 1038.28c7.58-26.55-7.8-54.225-34.35-61.807-26.56-7.581-54.23 7.799-61.81 34.347l96.16 27.46Zm-96.16-27.46a286.94 286.94 0 0 1-82.52 133.2l67.4 73.87a386.936 386.936 0 0 0 111.28-179.61l-96.16-27.46Zm-82.52 133.2a286.96 286.96 0 0 1-140.19 70l18.55 98.26c70.55-13.32 136.01-46 189.04-94.39l-67.4-73.87Zm-140.19 70a287.01 287.01 0 0 1-156.06-14.07l-35.83 93.36a386.999 386.999 0 0 0 210.44 18.97l-18.55-98.26Zm-156.06-14.07a287.042 287.042 0 0 1-125.41-93.95l-79.53 60.62a387.052 387.052 0 0 0 169.11 126.69l35.83-93.36ZM1093.74 1106a287.077 287.077 0 0 1-57.36-145.808l-99.514 9.809a386.92 386.92 0 0 0 77.344 196.619l79.53-60.62Zm-57.36-145.808a286.942 286.942 0 0 1 27.79-154.198l-89.83-43.932a386.926 386.926 0 0 0-37.474 207.939l99.514-9.809Zm27.79-154.198c22.2-45.398 64.19-86.455 111.88-116.542l-53.37-84.571c-58.06 36.639-115.61 90.257-148.34 157.181l89.83 43.932ZM1268.64 0v415.592h100V0h-100Zm-92.59 689.452c44.62-28.157 91.74-64.532 128.17-108.999 36.57-44.642 64.42-100.111 64.42-164.861h-100c0 34.683-14.73 68.471-41.78 101.493-27.19 33.196-64.71 62.892-104.18 87.796l53.37 84.571Z" fill="#424242"/></g><g filter="url(#g)"><path d="M1986.08 1038.28c7.58-26.55-7.8-54.225-34.35-61.807-26.56-7.581-54.23 7.799-61.81 34.347l96.16 27.46Zm-96.16-27.46a286.94 286.94 0 0 1-82.52 133.2l67.4 73.87a386.936 386.936 0 0 0 111.28-179.61l-96.16-27.46Zm-82.52 133.2a286.96 286.96 0 0 1-140.19 70l18.55 98.26c70.55-13.32 136.01-46 189.04-94.39l-67.4-73.87Zm-140.19 70a287.01 287.01 0 0 1-156.06-14.07l-35.83 93.36a386.999 386.999 0 0 0 210.44 18.97l-18.55-98.26Zm-156.06-14.07a287.042 287.042 0 0 1-125.41-93.95l-79.53 60.62a387.052 387.052 0 0 0 169.11 126.69l35.83-93.36ZM1385.74 1106a287.077 287.077 0 0 1-57.36-145.808l-99.51 9.809a386.906 386.906 0 0 0 77.34 196.619l79.53-60.62Zm-57.36-145.808a286.942 286.942 0 0 1 27.79-154.198l-89.83-43.932a386.858 386.858 0 0 0-37.47 207.939l99.51-9.809Zm27.79-154.198c22.2-45.398 64.19-86.455 111.88-116.542l-53.37-84.571c-58.06 36.639-115.61 90.257-148.34 157.181l89.83 43.932ZM1560.64 0v415.592h100V0h-100Zm-92.59 689.452c44.62-28.157 91.74-64.532 128.17-108.999 36.57-44.642 64.42-100.111 64.42-164.861h-100c0 34.683-14.73 68.471-41.78 101.493-27.19 33.196-64.71 62.892-104.18 87.796l53.37 84.571Z" fill="#424242"/></g></g><defs><filter id="c" x="49" y="-10" width="801.014" height="1359" filterUnits="userSpaceOnUse" color-interpolation-filters="sRGB"><feFlood flood-opacity="0" result="BackgroundImageFix"/><feColorMatrix in="SourceAlpha" values="0 0 0 0 0 0 0 0 0 0 0 0 0 0 0 0 0 0 127 0" result="hardAlpha"/><feOffset dx="10" dy="10"/><feGaussianBlur stdDeviation="10"/><feColorMatrix values="0 0 0 0 0 0 0 0 0 0 0 0 0 0 0 0 0 0 0.25 0"/><feBlend in2="BackgroundImageFix" result="effect1_dropShadow_1716:3027"/><feBlend in="SourceGraphic" in2="effect1_dropShadow_1716:3027" result="shape"/></filter><filter id="d" x="341" y="-10" width="801.014" height="1359" filterUnits="userSpaceOnUse" color-interpolation-filters="sRGB"><feFlood flood-opacity="0" result="BackgroundImageFix"/><feColorMatrix in="SourceAlpha" values="0 0 0 0 0 0 0 0 0 0 0 0 0 0 0 0 0 0 127 0" result="hardAlpha"/><feOffset dx="10" dy="10"/><feGaussianBlur stdDeviation="10"/><feColorMatrix values="0 0 0 0 0 0 0 0 0 0 0 0 0 0 0 0 0 0 0.25 0"/><feBlend in2="BackgroundImageFix" result="effect1_dropShadow_1716:3027"/><feBlend in="SourceGraphic" in2="effect1_dropShadow_1716:3027" result="shape"/></filter><filter id="e" x="633" y="-10" width="801.014" height="1359" filterUnits="userSpaceOnUse" color-interpolation-filters="sRGB"><feFlood flood-opacity="0" result="BackgroundImageFix"/><feColorMatrix in="SourceAlpha" values="0 0 0 0 0 0 0 0 0 0 0 0 0 0 0 0 0 0 127 0" result="hardAlpha"/><feOffset dx="10" dy="10"/><feGaussianBlur stdDeviation="10"/><feColorMatrix values="0 0 0 0 0 0 0 0 0 0 0 0 0 0 0 0 0 0 0.25 0"/><feBlend in2="BackgroundImageFix" result="effect1_dropShadow_1716:3027"/><feBlend in="SourceGraphic" in2="effect1_dropShadow_1716:3027" result="shape"/></filter><filter id="f" x="925" y="-10" width="801.014" height="1359" filterUnits="userSpaceOnUse" color-interpolation-filters="sRGB"><feFlood flood-opacity="0" result="BackgroundImageFix"/><feColorMatrix in="SourceAlpha" values="0 0 0 0 0 0 0 0 0 0 0 0 0 0 0 0 0 0 127 0" result="hardAlpha"/><feOffset dx="10" dy="10"/><feGaussianBlur stdDeviation="10"/><feColorMatrix values="0 0 0 0 0 0 0 0 0 0 0 0 0 0 0 0 0 0 0.25 0"/><feBlend in2="BackgroundImageFix" result="effect1_dropShadow_1716:3027"/><feBlend in="SourceGraphic" in2="effect1_dropShadow_1716:3027" result="shape"/></filter><filter id="g" x="1217" y="-10" width="801.014" height="1359" filterUnits="userSpaceOnUse" color-interpolation-filters="sRGB"><feFlood flood-opacity="0" result="BackgroundImageFix"/><feColorMatrix in="SourceAlpha" values="0 0 0 0 0 0 0 0 0 0 0 0 0 0 0 0 0 0 127 0" result="hardAlpha"/><feOffset dx="10" dy="10"/><feGaussianBlur stdDeviation="10"/><feColorMatrix values="0 0 0 0 0 0 0 0 0 0 0 0 0 0 0 0 0 0 0.25 0"/><feBlend in2="BackgroundImageFix" result="effect1_dropShadow_1716:3027"/><feBlend in="SourceGraphic" in2="effect1_dropShadow_1716:3027" result="shape"/></filter><linearGradient id="b" x1="2048" y1="0" x2="0" y2="2048" gradientUnits="userSpaceOnUse"><stop stop-color="#CC7665"/><stop offset="1" stop-color="#E6AB71"/></linearGradient><clipPath id="a"><path fill="#fff" d="M0 0h2048v2048H0z"/></clipPath></defs></svg>

<svg width="2048" height="2048" viewBox="0 0 2048 2048" fill="none" xmlns="http://www.w3.org/2000/svg">
<g clip-path="url(#clip0_1716_3027)">
<rect width="2048" height="2048" fill="url(#paint0_linear_1716_3027)"/>
<g filter="url(#filter0_d_1716_3027)">
<path d="M1402.08 1038.28C1409.66 1011.73 1394.28 984.055 1367.73 976.473C1341.17 968.892 1313.5 984.272 1305.92 1010.82L1402.08 1038.28ZM1305.92 1010.82C1291.3 1062.02 1262.73 1108.14 1223.4 1144.02L1290.8 1217.89C1343.84 1169.5 1382.37 1107.31 1402.08 1038.28L1305.92 1010.82ZM1223.4 1144.02C1184.07 1179.91 1135.53 1204.14 1083.21 1214.02L1101.76 1312.28C1172.31 1298.96 1237.77 1266.28 1290.8 1217.89L1223.4 1144.02ZM1083.21 1214.02C1030.89 1223.9 976.855 1219.02 927.147 1199.95L891.318 1293.31C958.347 1319.03 1031.21 1325.6 1101.76 1312.28L1083.21 1214.02ZM927.147 1199.95C877.438 1180.87 834.018 1148.34 801.742 1106L722.213 1166.62C765.737 1223.72 824.289 1267.58 891.318 1293.31L927.147 1199.95ZM801.742 1106C769.465 1063.66 749.606 1013.17 744.384 960.192L644.866 970.001C651.908 1041.45 678.689 1109.53 722.213 1166.62L801.742 1106ZM744.384 960.192C739.162 907.211 748.783 853.821 772.173 805.994L682.34 762.062C650.799 826.557 637.824 898.554 644.866 970.001L744.384 960.192ZM772.173 805.994C794.374 760.596 836.365 719.539 884.046 689.452L830.682 604.881C772.618 641.52 715.068 695.138 682.34 762.062L772.173 805.994ZM976.645 2.1019e-06V415.592L1076.64 415.592V-2.1019e-06L976.645 2.1019e-06ZM884.046 689.452C928.67 661.295 975.794 624.92 1012.22 580.453C1048.79 535.811 1076.64 480.342 1076.64 415.592L976.645 415.592C976.645 450.275 961.909 484.063 934.859 517.085C907.667 550.281 870.15 579.977 830.682 604.881L884.046 689.452Z" fill="#424242"/>
</g>
</g>
<defs>
<filter id="filter0_d_1716_3027" x="633" y="-10" width="801.014" height="1359" filterUnits="userSpaceOnUse" color-interpolation-filters="sRGB">
<feFlood flood-opacity="0" result="BackgroundImageFix"/>
<feColorMatrix in="SourceAlpha" type="matrix" values="0 0 0 0 0 0 0 0 0 0 0 0 0 0 0 0 0 0 127 0" result="hardAlpha"/>
<feOffset dx="10" dy="10"/>
<feGaussianBlur stdDeviation="10"/>
<feColorMatrix type="matrix" values="0 0 0 0 0 0 0 0 0 0 0 0 0 0 0 0 0 0 0.25 0"/>
<feBlend mode="normal" in2="BackgroundImageFix" result="effect1_dropShadow_1716_3027"/>
<feBlend mode="normal" in="SourceGraphic" in2="effect1_dropShadow_1716_3027" result="shape"/>
</filter>
<linearGradient id="paint0_linear_1716_3027" x1="2048" y1="0" x2="0" y2="2048" gradientUnits="userSpaceOnUse">
<stop stop-color="#CC7665"/>
<stop offset="1" stop-color="#E6AB71"/>
</linearGradient>
<clipPath id="clip0_1716_3027">
<rect width="2048" height="2048" fill="white"/>
</clipPath>
</defs>
</svg>
